X: 43060
T: Wind That Shakes The Barley, The
R: reel
M: 4/4
K: Dmajor
|A2AB AFED|B2BA BcdB|A2AB AFED|gfed BcdB|
A2AB AFED|B2BA BcdB|A2AB AFED|gfed Bcde|
f2fd g2ge|f2fd Bcde|fafd gbge|afed Bcde|
f3d g3e|f2fd Bcde|f4 g4|a2f2 e2d2
A2 A A2 FED|B2 B B2 cdB|A2AB AFED|gfe2 BcdB|
(A4 A) FED|(B4 B) cdB|A2AB AFED|B2 c2 d2 e2|
f2fd g2ge|f4 Bcde|f2fd g2fg|afe2 Bcde|
f2fd g2ge|f2fd Bcde|f2ae g2be|afed BcdB
(A4 A) FE2|(B4B) cd2|A2 A A2 FE2|g2 e2 BcdB|
A2AB AFED|B2BA BcdB|A2A2 AFED|g2 f2 d2 e2|
f2fd g2ge|f2fd Bcde|fef2 g4|afed Bcde|
f2fd g2ge|f2fd Bcde|fafd gbge|afed Bcdc|d8|

